X:1
T:Bird on the Wing -- Jig
R:reel
B:Ryan's Mammoth Collection
N: 117 661
Z: Contributed by Ray Davies,  ray:davies99.freeserve.co.uk
M:2/4
L:1/16
K:G
vkd2k^d2 "4"ke4  | vzdcA D4  | z2_E2 (=Ec)zu c |\
 BG"4"AF GABc |
kd2k^d2 "4"ke4  | zdcA D4  | z2_E2 (=Ec)zc |\
 BG"4"AF G2z2 :|
|:vDGzuB AGBG | DGzB AGBG | Adzf edfd | Adzf edfd |
DGzB AGBG | DGzB AGBG |1 egga gedc |\
 BG"4"AF GFED :|2 ((3dcB) ((3Bcd) cBAc |\
 BG"4"AF GABc "_D.C."|]
